X:5
T:Shores of Lough Reagh, The
T:Humours Of Loughrea, The
M:4/4
L:1/8
S:Music for Whistle and Guitar (Breatnach/Dunlea, Trk 1)
R:reel
Z:Ed Wosika
K:Gmaj
| ~G3 A Bg g2 | bg~g2 egdB | ~G3 A BGG2 | ABAG EGDE
| ~G3 A Bg g2 | bgag (3efg dB | G2 GA BAGE | ABAG ED Bd|
| g2 (3efg ~fe Bd | g2 ef gaba | g2 (3efg ~fe Bd | egfd e2 ef
| g2 (3efg ~fe Bf | e2 Be gaba | g2 ~ge be ge | dgbg egdB |
%Breatnach does this Fields/House/Shores set on a B whistle
%but it is set up for a D whistle in this set-group.
